_inc/images/systems/logos/auto-sports.svg

<svg viewBox="0 0 200 40" xmlns="http://www.w3.org/2000/svg">
    <path d="m59.11 29.391 1.678-4.938c1.679.459 3.217.688 4.616.688 1.399 0 2.527-.06 3.387-.18l.239-1.496-2.487-.239c-1.899-.179-3.244-.609-4.037-1.287-.786-.678-1.178-1.636-1.178-2.872 0-.54.06-1.138.179-1.796.46-2.553 1.292-4.31 2.498-5.266 1.212-.958 3.087-1.437 5.625-1.437 2.537 0 4.776.249 6.714.748l-1.559 4.788c-1.738-.299-3.137-.449-4.196-.449-1.059 0-1.958.05-2.698.15l-.239 1.466 2.008.21c2.038.219 3.487.704 4.346 1.456.859.745 1.289 1.745 1.289 3.002 0 1.277-.28 2.594-.84 3.95-.279.698-.586 1.284-.919 1.756a4.378 4.378 0 0 1-1.259 1.187 7.946 7.946 0 0 1-1.388.748c-.42.172-.949.299-1.589.379-.939.14-2.088.209-3.446.209-2.478 0-4.726-.259-6.744-.777Zm27.963-4.19h-3.716l-.78 4.518h-5.694l3.297-18.702h8.992c3.396 0 5.095 1.576 5.095 4.727 0 1.497-.21 2.846-.63 4.051-.42 1.209-.883 2.171-1.389 2.883-.513.704-1.215 1.303-2.107 1.795-.887.486-1.909.728-3.068.728Zm-.749-9.396h-1.319l-.809 4.608h1.319c.679 0 1.192-.073 1.539-.219.352-.153.579-.499.679-1.038.259-1.476.389-2.284.389-2.424 0-.379-.149-.628-.449-.747-.3-.12-.749-.18-1.349-.18Zm15.195 1.466-1.379 7.78h2.368c.779 0 1.359-.092 1.738-.279.38-.192.63-.628.749-1.307l1.379-7.78h-2.398c-.759 0-1.328.092-1.708.28-.38.192-.629.628-.749 1.306Zm3.447-6.703c2.537 0 4.345.496 5.424 1.486 1.079.985 1.619 2.504 1.619 4.559s-.326 4.206-.979 6.453c-.646 2.242-1.675 3.983-3.087 5.227-1.405 1.25-3.463 1.875-6.174 1.875-2.704 0-4.596-.491-5.675-1.476-1.079-.991-1.618-2.514-1.618-4.569 0-.977.139-2.267.419-3.869.28-1.609.65-2.996 1.109-4.16.46-1.17 1.079-2.185 1.858-3.042 1.499-1.656 3.867-2.484 7.104-2.484Zm21.519 12.927 1.978 6.224h-6.264l-1.378-5.566h-1.229l-.959 5.566h-5.695l3.297-18.702h8.991c3.417 0 5.125 1.526 5.125 4.578 0 1.257-.189 2.454-.569 3.591-.699 2.154-1.798 3.591-3.297 4.309Zm-4.286-7.69h-1.139l-.659 3.74h1.319c.679 0 1.191-.073 1.538-.219.353-.153.593-.582.719-1.287.133-.711.2-1.147.2-1.307 0-.399-.153-.655-.459-.767-.313-.108-.819-.16-1.519-.16Zm24.577-4.788-.869 4.788h-4.136l-2.428 13.914h-5.695l2.428-13.914h-4.106l.869-4.788h13.937Zm-1.439 18.374 1.679-4.938c1.678.459 3.217.688 4.615.688 1.399 0 2.528-.06 3.387-.18l.24-1.496-2.488-.239c-1.898-.179-3.244-.609-4.036-1.287-.786-.678-1.179-1.636-1.179-2.872 0-.54.06-1.138.18-1.796.46-2.553 1.292-4.31 2.498-5.266 1.212-.958 3.087-1.437 5.625-1.437 2.537 0 4.775.249 6.713.748l-1.558 4.788c-1.739-.299-3.138-.449-4.196-.449-1.059 0-1.958.05-2.698.15l-.24 1.466 2.008.21c2.038.219 3.487.704 4.346 1.456.859.745 1.289 1.745 1.289 3.002 0 1.277-.28 2.594-.839 3.95-.28.698-.586 1.284-.919 1.756a4.391 4.391 0 0 1-1.259 1.187 7.916 7.916 0 0 1-1.389.748c-.419.172-.949.299-1.588.379-.94.14-2.088.209-3.447.209-2.477 0-4.725-.259-6.744-.777Z" style="white-space:pre;fill:#fff"/>
    <path d="M47.423 9.832c5.549 0 10.025 4.48 10.039 10.036.009 5.426-4.51 9.955-9.954 9.964-5.605.013-10.082-4.486-10.078-10.118.003-5.379 4.555-9.882 9.993-9.882Zm.23 5.494c0 .412-.023.691.01.964.017.149.088.335.2.421.895.67 1.801 1.321 2.713 1.965a.505.505 0 0 0 .385.062 19.385 19.385 0 0 0 1.543-.48c.125-.046.277-.21.287-.332.099-1.005.177-2.014.24-3.023a.526.526 0 0 0-.171-.388 34.667 34.667 0 0 0-1.711-1.33c-.116-.082-.346-.102-.484-.05-.685.266-1.34.618-2.038.845-.757.246-1.237.601-.974 1.346Zm-.448.156c0-.237-.02-.474.007-.71.026-.263-.062-.394-.313-.497-.911-.371-1.81-.775-2.725-1.147a.553.553 0 0 0-.451.04c-.579.411-1.145.837-1.695 1.285a.576.576 0 0 0-.181.42c.069 1.009.171 2.015.247 3.024.016.223.119.311.323.375.466.138.927.285 1.385.456.228.085.388.044.573-.096.652-.488 1.287-1.005 1.981-1.426.678-.42 1.067-.903.849-1.724Zm8.005 5.909c-.034-.064-.066-.149-.119-.215-.678-.802-1.353-1.607-2.047-2.398-.069-.08-.257-.116-.365-.086a20.51 20.51 0 0 0-1.543.473.555.555 0 0 0-.307.3 134.059 134.059 0 0 0-1.037 3.18.569.569 0 0 0 .063.424c.296.447.612.888.948 1.308a.45.45 0 0 0 .379.132c.72-.151 1.424-.392 2.152-.487.819-.105 1.29-.46 1.435-1.295.082-.446.286-.871.441-1.336ZM42.028 18.6c-.069.066-.158.135-.23.217-.658.749-1.323 1.498-1.965 2.264a.597.597 0 0 0-.096.477c.184.643.392 1.278.626 1.905a.61.61 0 0 0 .358.332c.968.254 1.942.471 2.91.717.213.052.332.026.458-.161.286-.424.608-.825.888-1.252.079-.122.126-.319.086-.454-.323-1.055-.669-2.099-1.014-3.148-.033-.096-.072-.24-.145-.265-.606-.215-1.218-.412-1.876-.632Zm2.251 6.234c.583.953 1.139 1.873 1.718 2.779.08.126.277.241.425.248.681.025 1.366.023 2.051.003a.511.511 0 0 0 .372-.205 89.255 89.255 0 0 0 1.596-2.621c.059-.099.046-.303-.02-.401a18.044 18.044 0 0 0-.948-1.308.574.574 0 0 0-.388-.187 140.892 140.892 0 0 0-3.315 0 .567.567 0 0 0-.385.183c-.382.49-.734.996-1.106 1.509Zm11.102-10.345c-1.28-1.808-2.873-3.024-4.953-3.73.155.395.306.7.401 1.022.171.594.514 1.036 1.031 1.377.447.296.849.661 1.28.982.122.092.27.181.415.198.573.065 1.148.098 1.826.151Zm-15.745-.111c1.112.058 2.142-.046 2.942-.911.142-.151.316-.282.497-.381.888-.487.908-1.446 1.34-2.254-1.571.315-4.004 2.139-4.779 3.546Zm17.365 5.957c-1.666.874-2.561 3.684-1.825 5.117 1.11-1.532 1.7-3.214 1.825-5.117Zm-19.067.003a9.138 9.138 0 0 0 1.748 5.075c.417-1.168.391-1.397-.376-3.714-.227-.684-.922-.89-1.372-1.361Zm12.019 8.709c-1.023-1.127-4.417-.923-5.107-.02a9.562 9.562 0 0 0 5.107.02Z" style="fill:#ccc"/>
</svg>

<?xml version="1.0" encoding="utf-8"?>
<svg viewBox="0 0 200 40" xmlns="http://www.w3.org/2000/svg">
  <path d="M 59.11 29.391 L 59.11 29.391 L 60.788 24.453 L 60.788 24.453 C 62.467 24.912 64.005 25.141 65.404 25.141 L 65.404 25.141 L 65.404 25.141 C 66.803 25.141 67.931 25.081 68.791 24.961 L 68.791 24.961 L 69.03 23.465 L 66.543 23.226 L 66.543 23.226 C 64.644 23.047 63.299 22.617 62.506 21.939 L 62.506 21.939 L 62.506 21.939 C 61.72 21.261 61.328 20.303 61.328 19.067 L 61.328 19.067 L 61.328 19.067 C 61.328 18.527 61.388 17.929 61.507 17.271 L 61.507 17.271 L 61.507 17.271 C 61.967 14.718 62.799 12.961 64.005 12.005 L 64.005 12.005 L 64.005 12.005 C 65.217 11.047 67.092 10.568 69.63 10.568 L 69.63 10.568 L 69.63 10.568 C 72.167 10.568 74.406 10.817 76.344 11.316 L 76.344 11.316 L 74.785 16.104 L 74.785 16.104 C 73.047 15.805 71.648 15.655 70.589 15.655 L 70.589 15.655 L 70.589 15.655 C 69.53 15.655 68.631 15.705 67.891 15.805 L 67.891 15.805 L 67.652 17.271 L 69.66 17.481 L 69.66 17.481 C 71.698 17.7 73.147 18.185 74.006 18.937 L 74.006 18.937 L 74.006 18.937 C 74.865 19.682 75.295 20.682 75.295 21.939 L 75.295 21.939 L 75.295 21.939 C 75.295 23.216 75.015 24.533 74.455 25.889 L 74.455 25.889 L 74.455 25.889 C 74.176 26.587 73.869 27.173 73.536 27.645 L 73.536 27.645 L 73.536 27.645 C 73.21 28.111 72.79 28.506 72.277 28.832 L 72.277 28.832 L 72.277 28.832 C 71.771 29.164 71.308 29.413 70.889 29.58 L 70.889 29.58 L 70.889 29.58 C 70.469 29.752 69.94 29.879 69.3 29.959 L 69.3 29.959 L 69.3 29.959 C 68.361 30.099 67.212 30.168 65.854 30.168 L 65.854 30.168 L 65.854 30.168 C 63.376 30.168 61.128 29.909 59.11 29.391 Z M 87.073 25.201 L 87.073 25.201 L 83.357 25.201 L 82.577 29.719 L 76.883 29.719 L 80.18 11.017 L 89.172 11.017 L 89.172 11.017 C 92.568 11.017 94.267 12.593 94.267 15.744 L 94.267 15.744 L 94.267 15.744 C 94.267 17.241 94.057 18.59 93.637 19.795 L 93.637 19.795 L 93.637 19.795 C 93.217 21.004 92.754 21.966 92.248 22.678 L 92.248 22.678 L 92.248 22.678 C 91.735 23.382 91.033 23.981 90.141 24.473 L 90.141 24.473 L 90.141 24.473 C 89.254 24.959 88.232 25.201 87.073 25.201 Z M 86.324 15.805 L 85.005 15.805 L 84.196 20.413 L 85.515 20.413 L 85.515 20.413 C 86.194 20.413 86.707 20.34 87.054 20.194 L 87.054 20.194 L 87.054 20.194 C 87.406 20.041 87.633 19.695 87.733 19.156 L 87.733 19.156 L 87.733 19.156 C 87.992 17.68 88.122 16.872 88.122 16.732 L 88.122 16.732 L 88.122 16.732 C 88.122 16.353 87.973 16.104 87.673 15.985 L 87.673 15.985 L 87.673 15.985 C 87.373 15.865 86.924 15.805 86.324 15.805 L 86.324 15.805 Z M 101.519 17.271 L 101.519 17.271 L 100.14 25.051 L 102.508 25.051 L 102.508 25.051 C 103.287 25.051 103.867 24.959 104.246 24.772 L 104.246 24.772 L 104.246 24.772 C 104.626 24.58 104.876 24.144 104.995 23.465 L 104.995 23.465 L 106.374 15.685 L 103.976 15.685 L 103.976 15.685 C 103.217 15.685 102.648 15.777 102.268 15.965 L 102.268 15.965 L 102.268 15.965 C 101.888 16.157 101.639 16.593 101.519 17.271 Z M 104.966 10.568 L 104.966 10.568 L 104.966 10.568 C 107.503 10.568 109.311 11.064 110.39 12.054 L 110.39 12.054 L 110.39 12.054 C 111.469 13.039 112.009 14.558 112.009 16.613 L 112.009 16.613 L 112.009 16.613 C 112.009 18.668 111.683 20.819 111.03 23.066 L 111.03 23.066 L 111.03 23.066 C 110.384 25.308 109.355 27.049 107.943 28.293 L 107.943 28.293 L 107.943 28.293 C 106.538 29.543 104.48 30.168 101.769 30.168 L 101.769 30.168 L 101.769 30.168 C 99.065 30.168 97.173 29.677 96.094 28.692 L 96.094 28.692 L 96.094 28.692 C 95.015 27.701 94.476 26.178 94.476 24.123 L 94.476 24.123 L 94.476 24.123 C 94.476 23.146 94.615 21.856 94.895 20.254 L 94.895 20.254 L 94.895 20.254 C 95.175 18.645 95.545 17.258 96.004 16.094 L 96.004 16.094 L 96.004 16.094 C 96.464 14.924 97.083 13.909 97.862 13.052 L 97.862 13.052 L 97.862 13.052 C 99.361 11.396 101.729 10.568 104.966 10.568 Z M 126.485 23.495 L 128.463 29.719 L 122.199 29.719 L 120.821 24.153 L 119.592 24.153 L 118.633 29.719 L 112.938 29.719 L 116.235 11.017 L 125.226 11.017 L 125.226 11.017 C 128.643 11.017 130.351 12.543 130.351 15.595 L 130.351 15.595 L 130.351 15.595 C 130.351 16.852 130.162 18.049 129.782 19.186 L 129.782 19.186 L 129.782 19.186 C 129.083 21.34 127.984 22.777 126.485 23.495 L 126.485 23.495 Z M 122.199 15.805 L 121.06 15.805 L 120.401 19.545 L 121.72 19.545 L 121.72 19.545 C 122.399 19.545 122.911 19.472 123.258 19.326 L 123.258 19.326 L 123.258 19.326 C 123.611 19.173 123.851 18.744 123.977 18.039 L 123.977 18.039 L 123.977 18.039 C 124.11 17.328 124.177 16.892 124.177 16.732 L 124.177 16.732 L 124.177 16.732 C 124.177 16.333 124.024 16.077 123.718 15.965 L 123.718 15.965 L 123.718 15.965 C 123.405 15.857 122.899 15.805 122.199 15.805 L 122.199 15.805 Z M 146.776 11.017 L 145.907 15.805 L 141.771 15.805 L 139.343 29.719 L 133.648 29.719 L 136.076 15.805 L 131.97 15.805 L 132.839 11.017 L 146.776 11.017 Z M 145.337 29.391 L 145.337 29.391 L 147.016 24.453 L 147.016 24.453 C 148.694 24.912 150.233 25.141 151.631 25.141 L 151.631 25.141 L 151.631 25.141 C 153.03 25.141 154.159 25.081 155.018 24.961 L 155.018 24.961 L 155.258 23.465 L 152.77 23.226 L 152.77 23.226 C 150.872 23.047 149.526 22.617 148.734 21.939 L 148.734 21.939 L 148.734 21.939 C 147.948 21.261 147.555 20.303 147.555 19.067 L 147.555 19.067 L 147.555 19.067 C 147.555 18.527 147.615 17.929 147.735 17.271 L 147.735 17.271 L 147.735 17.271 C 148.195 14.718 149.027 12.961 150.233 12.005 L 150.233 12.005 L 150.233 12.005 C 151.445 11.047 153.32 10.568 155.858 10.568 L 155.858 10.568 L 155.858 10.568 C 158.395 10.568 160.633 10.817 162.571 11.316 L 162.571 11.316 L 161.013 16.104 L 161.013 16.104 C 159.274 15.805 157.875 15.655 156.817 15.655 L 156.817 15.655 L 156.817 15.655 C 155.758 15.655 154.859 15.705 154.119 15.805 L 154.119 15.805 L 153.879 17.271 L 155.887 17.481 L 155.887 17.481 C 157.925 17.7 159.374 18.185 160.233 18.937 L 160.233 18.937 L 160.233 18.937 C 161.092 19.682 161.522 20.682 161.522 21.939 L 161.522 21.939 L 161.522 21.939 C 161.522 23.216 161.242 24.533 160.683 25.889 L 160.683 25.889 L 160.683 25.889 C 160.403 26.587 160.097 27.173 159.764 27.645 L 159.764 27.645 L 159.764 27.645 C 159.437 28.111 159.018 28.506 158.505 28.832 L 158.505 28.832 L 158.505 28.832 C 157.999 29.164 157.536 29.413 157.116 29.58 L 157.116 29.58 L 157.116 29.58 C 156.697 29.752 156.167 29.879 155.528 29.959 L 155.528 29.959 L 155.528 29.959 C 154.588 30.099 153.44 30.168 152.081 30.168 L 152.081 30.168 L 152.081 30.168 C 149.604 30.168 147.356 29.909 145.337 29.391 Z" style="white-space: pre; fill: rgb(255, 255, 255);"/>
  <path d="M 47.423 9.832 C 52.972 9.832 57.448 14.312 57.462 19.868 C 57.471 25.294 52.952 29.823 47.508 29.832 C 41.903 29.845 37.426 25.346 37.43 19.714 C 37.433 14.335 41.985 9.832 47.423 9.832 Z M 47.653 15.326 C 47.653 15.738 47.63 16.017 47.663 16.29 C 47.68 16.439 47.751 16.625 47.863 16.711 C 48.758 17.381 49.664 18.032 50.576 18.676 C 50.675 18.745 50.845 18.772 50.961 18.738 C 51.48 18.597 51.998 18.442 52.504 18.258 C 52.629 18.212 52.781 18.048 52.791 17.926 C 52.89 16.921 52.968 15.912 53.031 14.903 C 53.037 14.774 52.962 14.594 52.86 14.515 C 52.301 14.055 51.734 13.608 51.149 13.185 C 51.033 13.103 50.803 13.083 50.665 13.135 C 49.98 13.401 49.325 13.753 48.627 13.98 C 47.87 14.226 47.39 14.581 47.653 15.326 Z M 47.205 15.482 C 47.205 15.245 47.185 15.008 47.212 14.772 C 47.238 14.509 47.15 14.378 46.899 14.275 C 45.988 13.904 45.089 13.5 44.174 13.128 C 44.046 13.076 43.832 13.092 43.723 13.168 C 43.144 13.579 42.578 14.005 42.028 14.453 C 41.923 14.539 41.837 14.735 41.847 14.873 C 41.916 15.882 42.018 16.888 42.094 17.897 C 42.11 18.12 42.213 18.208 42.417 18.272 C 42.883 18.41 43.344 18.557 43.802 18.728 C 44.03 18.813 44.19 18.772 44.375 18.632 C 45.027 18.144 45.662 17.627 46.356 17.206 C 47.034 16.786 47.423 16.303 47.205 15.482 Z M 55.21 21.391 C 55.176 21.327 55.144 21.242 55.091 21.176 C 54.413 20.374 53.738 19.569 53.044 18.778 C 52.975 18.698 52.787 18.662 52.679 18.692 C 52.159 18.83 51.642 18.987 51.136 19.165 C 51.01 19.208 50.872 19.342 50.829 19.465 C 50.47 20.519 50.125 21.581 49.792 22.645 C 49.753 22.771 49.783 22.957 49.855 23.069 C 50.151 23.516 50.467 23.957 50.803 24.377 C 50.875 24.469 51.066 24.535 51.182 24.509 C 51.902 24.358 52.606 24.117 53.334 24.022 C 54.153 23.917 54.624 23.562 54.769 22.727 C 54.851 22.281 55.055 21.856 55.21 21.391 Z M 42.028 18.6 C 41.959 18.666 41.87 18.735 41.798 18.817 C 41.14 19.566 40.475 20.315 39.833 21.081 C 39.741 21.193 39.694 21.416 39.737 21.558 C 39.921 22.201 40.129 22.836 40.363 23.463 C 40.416 23.602 40.58 23.76 40.721 23.795 C 41.689 24.049 42.663 24.266 43.631 24.512 C 43.844 24.564 43.963 24.538 44.089 24.351 C 44.375 23.927 44.697 23.526 44.977 23.099 C 45.056 22.977 45.103 22.78 45.063 22.645 C 44.74 21.59 44.394 20.546 44.049 19.497 C 44.016 19.401 43.977 19.257 43.904 19.232 C 43.298 19.017 42.686 18.82 42.028 18.6 Z M 44.279 24.834 C 44.862 25.787 45.418 26.707 45.997 27.613 C 46.077 27.739 46.274 27.854 46.422 27.861 C 47.103 27.886 47.788 27.884 48.473 27.864 C 48.601 27.861 48.778 27.769 48.845 27.659 C 49.391 26.796 49.924 25.921 50.441 25.038 C 50.5 24.939 50.487 24.735 50.421 24.637 C 50.125 24.186 49.809 23.753 49.473 23.329 C 49.391 23.227 49.219 23.145 49.085 23.142 C 47.978 23.129 46.876 23.129 45.77 23.142 C 45.639 23.145 45.464 23.224 45.385 23.325 C 45.003 23.815 44.651 24.321 44.279 24.834 Z M 55.381 14.489 C 54.101 12.681 52.508 11.465 50.428 10.759 C 50.583 11.154 50.734 11.459 50.829 11.781 C 51 12.375 51.343 12.817 51.86 13.158 C 52.307 13.454 52.709 13.819 53.14 14.14 C 53.262 14.232 53.41 14.321 53.555 14.338 C 54.128 14.403 54.703 14.436 55.381 14.489 Z M 39.636 14.378 C 40.748 14.436 41.778 14.332 42.578 13.467 C 42.72 13.316 42.894 13.185 43.075 13.086 C 43.963 12.599 43.983 11.64 44.415 10.832 C 42.844 11.147 40.411 12.971 39.636 14.378 Z M 57.001 20.335 C 55.335 21.209 54.44 24.019 55.176 25.452 C 56.286 23.92 56.876 22.238 57.001 20.335 Z M 37.934 20.338 C 38.01 22.201 38.582 23.877 39.682 25.413 C 40.099 24.245 40.073 24.016 39.306 21.699 C 39.079 21.015 38.384 20.809 37.934 20.338 Z M 49.953 29.047 C 48.93 27.92 45.536 28.124 44.846 29.027 C 46.55 29.493 48.239 29.507 49.953 29.047 Z" style="fill: rgb(204, 204, 204);"/>
</svg>
